X:771
T:Reel 771
M:4/4
K:Gmin
L:1/8
dc|BGFG DCD2|GAB^F GABc||dfcA BGAF|DGG^F GB:||2GBAc BdcA|dGAF G2|d2|dgga gfdg|fcBF Gcdc|dgga gfd=e|fdcB G2Bc|dgga gfdc|Bcd=e f2ef|gefd ecdc|BGAF G2|
